svg/weather/floating_dust_line.svg

<?xml version="1.0" encoding="UTF-8"?>
<svg width="24px" height="24px" viewBox="0 0 24 24" version="1.1" xmlns="http://www.w3.org/2000/svg" xmlns:xlink="http://www.w3.org/1999/xlink">
    <title>floating_dust_line</title>
    <g id="Icon" stroke="none" stroke-width="1" fill="none" fill-rule="evenodd">
        <g id="Weather" transform="translate(-193.000000, -96.000000)">
            <g id="floating_dust_line" transform="translate(193.000000, 96.000000)">
                <path d="M24,0 L24,24 L0,24 L0,0 L24,0 Z M12.5935,23.2578 L12.5819,23.2595 L12.5109,23.295 L12.4919,23.2987 L12.4767,23.295 L12.4057,23.2595 C12.3958,23.2564 12.387,23.259 12.3821,23.2649 L12.378,23.2758 L12.3609,23.7031 L12.3659,23.7235 L12.3769,23.7357 L12.4805,23.8097 L12.4953,23.8136 L12.5071,23.8097 L12.6107,23.7357 L12.6233,23.7197 L12.6267,23.7031 L12.6096,23.2758 C12.6076,23.2657 12.601,23.2593 12.5935,23.2578 Z M12.8584,23.1453 L12.8445,23.1473 L12.6598,23.2397 L12.6499,23.2499 L12.6472,23.2611 L12.6651,23.6906 L12.6699,23.7034 L12.6784,23.7105 L12.8793,23.8032 C12.8914,23.8069 12.9022,23.803 12.9078,23.7952 L12.9118,23.7812 L12.8777,23.1665 C12.8753,23.1546 12.8674,23.147 12.8584,23.1453 Z M12.143,23.1473 C12.1332,23.1424 12.1222,23.1453 12.1156,23.1526 L12.1099,23.1665 L12.0758,23.7812 C12.0751,23.7927 12.0828,23.8019 12.0926,23.8046 L12.1083,23.8032 L12.3092,23.7105 L12.3186,23.7024 L12.3225,23.6906 L12.3404,23.2611 L12.3372,23.2485 L12.3278,23.2397 L12.143,23.1473 Z" id="MingCute" fill-rule="nonzero"></path>
                <path d="M5,4 C5,3.44772 5.44772,3 6,3 L8,3 C8.55228,3 9,3.44772 9,4 C9,4.55228 8.55228,5 8,5 L6,5 C5.44772,5 5,4.55228 5,4 Z M10,4 C10,3.44772 10.4477,3 11,3 L20,3 C20.5523,3 21,3.44772 21,4 C21,4.55228 20.5523,5 20,5 L11,5 C10.4477,5 10,4.55228 10,4 Z M3,9 C3,8.44772 3.44772,8 4,8 L13,8 C13.5523,8 14,8.44772 14,9 C14,9.55228 13.5523,10 13,10 L4,10 C3.44772,10 3,9.55228 3,9 Z M15,9 C15,8.44772 15.4477,8 16,8 L18,8 C18.5523,8 19,8.44772 19,9 C19,9.55228 18.5523,10 18,10 L16,10 C15.4477,10 15,9.55228 15,9 Z M5,14 C5,13.4477 5.44772,13 6,13 L8,13 C8.55228,13 9,13.4477 9,14 C9,14.5523 8.55228,15 8,15 L6,15 C5.44772,15 5,14.5523 5,14 Z M10,14 C10,13.4477 10.4477,13 11,13 L20,13 C20.5523,13 21,13.4477 21,14 C21,14.5523 20.5523,15 20,15 L11,15 C10.4477,15 10,14.5523 10,14 Z M3,19 C3,18.4477 3.44772,18 4,18 L13,18 C13.5523,18 14,18.4477 14,19 C14,19.5523 13.5523,20 13,20 L4,20 C3.44772,20 3,19.5523 3,19 Z M15,19 C15,18.4477 15.4477,18 16,18 L18,18 C18.5523,18 19,18.4477 19,19 C19,19.5523 18.5523,20 18,20 L16,20 C15.4477,20 15,19.5523 15,19 Z" id="形状" fill="#09244B"></path>
            </g>
        </g>
    </g>
</svg>

<svg xmlns="http://www.w3.org/2000/svg" width="24" height="24"><g fill="none" fill-rule="evenodd"><path d="M24 0v24H0V0h24ZM12.594 23.258l-.012.002-.071.035-.02.004-.014-.004-.071-.036c-.01-.003-.019 0-.024.006l-.004.01-.017.428.005.02.01.013.104.074.015.004.012-.004.104-.074.012-.016.004-.017-.017-.427c-.002-.01-.009-.017-.016-.018Zm.264-.113-.014.002-.184.093-.01.01-.003.011.018.43.005.012.008.008.201.092c.012.004.023 0 .029-.008l.004-.014-.034-.614c-.003-.012-.01-.02-.02-.022Zm-.715.002a.023.023 0 0 0-.027.006l-.006.014-.034.614c0 .012.007.02.017.024l.015-.002.201-.093.01-.008.003-.011.018-.43-.003-.012-.01-.01-.184-.092Z"/><path fill="#09244B" d="M5 4a1 1 0 0 1 1-1h2a1 1 0 0 1 0 2H6a1 1 0 0 1-1-1Zm5 0a1 1 0 0 1 1-1h9a1 1 0 1 1 0 2h-9a1 1 0 0 1-1-1ZM3 9a1 1 0 0 1 1-1h9a1 1 0 1 1 0 2H4a1 1 0 0 1-1-1Zm12 0a1 1 0 0 1 1-1h2a1 1 0 1 1 0 2h-2a1 1 0 0 1-1-1ZM5 14a1 1 0 0 1 1-1h2a1 1 0 1 1 0 2H6a1 1 0 0 1-1-1Zm5 0a1 1 0 0 1 1-1h9a1 1 0 1 1 0 2h-9a1 1 0 0 1-1-1Zm-7 5a1 1 0 0 1 1-1h9a1 1 0 1 1 0 2H4a1 1 0 0 1-1-1Zm12 0a1 1 0 0 1 1-1h2a1 1 0 1 1 0 2h-2a1 1 0 0 1-1-1Z"/></g></svg>
